img/brand_visual_tree2.svg

<svg width="98" height="102" viewBox="0 0 98 102" fill="none" xmlns="http://www.w3.org/2000/svg">
<g clip-path="url(#clip0)">
<path d="M52.0162 102H39.2358L46.2309 37.6261H51.7691L52.0162 102Z" fill="#FF886D"/>
<path d="M40.7607 1.95948C34.3705 4.78883 31.3884 9.34112 25.4242 12.6603C20.0479 15.6586 17.0488 15.6164 12.0815 19.2565C7.11418 22.8966 2.40247 27.5587 0.919947 33.4961C-1.52537 43.3777 0.851785 53.6647 8.95455 63.4196C15.6004 71.384 26.7363 76.0292 38.7755 78.7741C48.1477 80.9109 59.0281 79.2977 65.282 77.2792C72.3282 75.0073 80.8059 70.6492 85.8584 64.6105C90.5957 58.9687 94.4894 52.8455 96.6024 45.8101C98.1105 40.8186 99.1585 34.7292 95.9464 30.6077C92.0441 25.4726 86.8638 26.3848 82.6974 22.1619C77.2274 16.6552 78.0027 13.2853 72.1067 8.22627C63.2286 0.641938 50.3545 -2.2972 40.7607 1.95948Z" fill="#28C99B"/>
<path d="M87.9205 42.6682C87.8694 41.5196 86.8044 39.4419 84.4443 40.9791C81.7178 42.7527 80.1841 45.9621 79.1873 49.0279C78.7698 50.2779 78.9572 52.2458 80.2779 52.1866C82.7828 52.0768 88.125 46.9756 87.9205 42.6682Z" fill="#00B28F"/>
<path d="M42.6013 31.7732C41.6044 31.1819 39.2784 30.9286 39.2699 33.7157C39.2699 36.9504 41.1188 39.974 43.1295 42.5078C43.9816 43.5382 45.6856 44.4756 46.3928 43.3523C47.6538 41.2156 46.3161 33.986 42.6013 31.7732Z" fill="#00B28F"/>
<path d="M52.7489 55.2778C52.5103 54.1545 51.13 52.2711 49.0426 54.1798C46.6484 56.3673 45.6345 59.771 45.1659 62.9635C44.9614 64.2557 45.4726 66.1729 46.7592 65.9026C49.213 65.3874 53.6776 59.5007 52.7489 55.2778Z" fill="#00B28F"/>
<path d="M15.3364 32.4995C14.1862 32.3306 11.9283 32.9387 12.9849 35.5484C14.1947 38.5467 17.0575 40.6159 19.8948 42.2628C21.0365 42.9132 23.0302 43.1074 23.2347 41.8236C23.6522 39.3744 19.6733 33.1667 15.3364 32.4995Z" fill="#00B28F"/>
<path d="M62.5387 13.7582C62.0189 12.7278 60.2041 11.2245 58.6705 13.6231C56.9153 16.3426 56.8386 19.8814 57.1624 23.0993C57.2902 24.3999 58.27 26.1313 59.4543 25.5401C61.6952 24.4253 64.4898 17.618 62.5387 13.7582Z" fill="#00B28F"/>
</g>
<defs>
<clipPath id="clip0">
<rect width="98" height="102" fill="white"/>
</clipPath>
</defs>
</svg>

<svg xmlns="http://www.w3.org/2000/svg" width="98" height="102" fill="none" xmlns:v="https://vecta.io/nano"><g clip-path="url(#A)"><path d="M52.016 102h-12.78l6.995-64.374h5.538L52.016 102z" fill="#ff886d"/><path d="M40.761 1.959c-6.39 2.829-9.372 7.382-15.336 10.701-5.376 2.998-8.375 2.956-13.343 6.596S2.402 27.559.92 33.496C-1.525 43.378.852 53.665 8.955 63.42c6.646 7.964 17.782 12.61 29.821 15.355 9.372 2.137 20.253.524 26.506-1.495 7.046-2.272 15.524-6.63 20.576-12.669 4.737-5.642 8.631-11.765 10.744-18.8 1.508-4.991 2.556-11.081-.656-15.202-3.902-5.135-9.083-4.223-13.249-8.446-5.47-5.507-4.695-8.877-10.591-13.936C63.229.642 50.355-2.297 40.761 1.959z" fill="#28c99b"/><g fill="#00b28f"><path d="M87.921 42.668c-.051-1.149-1.116-3.226-3.476-1.689-2.727 1.774-4.26 4.983-5.257 8.049-.417 1.25-.23 3.218 1.091 3.159 2.505-.11 7.847-5.211 7.643-9.518zm-45.32-10.895c-.997-.591-3.323-.845-3.331 1.942 0 3.235 1.849 6.258 3.86 8.792.852 1.03 2.556 1.968 3.263.844 1.261-2.137-.077-9.366-3.791-11.579zm10.148 23.505c-.239-1.123-1.619-3.007-3.706-1.098-2.394 2.188-3.408 5.591-3.877 8.784-.205 1.292.307 3.209 1.593 2.939 2.454-.515 6.918-6.402 5.99-10.625zM15.336 32.499c-1.15-.169-3.408.439-2.351 3.049 1.21 2.998 4.073 5.068 6.91 6.714 1.142.65 3.135.845 3.34-.439.418-2.449-3.561-8.657-7.898-9.324zm47.203-18.741c-.52-1.03-2.335-2.534-3.868-.135-1.755 2.72-1.832 6.258-1.508 9.476.128 1.301 1.108 3.032 2.292 2.441 2.241-1.115 5.035-7.922 3.084-11.782z"/></g></g><defs><clipPath id="A"><path fill="#fff" d="M0 0h98v102H0z"/></clipPath></defs></svg>
